X:1
T: The Tailor's Wedding
C:
R:Jig
Q:180
K:G
M:6/8
L:1/16
D2|:G2F2G2 B2G2B2|d2e2f2 g4b2|G2F2G2 B4e2|d2B2A2 A4D2|
G2F2G2 B2G2B2|d2e2f2 g4fz|a2g2f2 g2f2e2|1d2B2A2 A4D2:|2d2B2A2 A4(3Bcd|
|:e2f2e2 e2d2B2|d2e2d2 d2B2d2|e2f2e2 e2d2B2|d2B2A2 A2B2d2|
e2f2e2 e2d2B2|d2e2f2 g2f2g2|a2g2f2 g2f2e2|1d2B2A2 A4(3Bcd:|2d2B2A2 A4||
